X: 2190
T: Şu Gelen Atlı mıdır
C: (Anonim)
O: Turkey
F: http://compmusic.upf.edu/node/140
N: hicaz--turku--sofyan--su_gelen--
N: makam= hicaz
N: form= turku
N: usul= sofyan = 4/4
M: 4/4
L: 1/16
K: C _7/8B ^f ^c 
Q: 1/4=90
%%MIDI tuningsystem comma53
=f2{g}fe d2d2 e3d c4  | d2{e}dc cBBA ABcd e4  | \
w:  ARANAĞME  |   | 
=f2{g}fe d2d2 e3d c4  | 
w:   | 
d3c cBBA A8  | =f2{g}fe d2d2 e3d c4  | \
w:   |  ARANAĞME  | 
d2{e}dc cBBA ABcd e4  | 
w:   | 
=f2{g}fe d2d2 e3d c4  | d3c cBBA A3d cde2  | \
w:   |   | 
z2cd e2e2 e2e2 a4  | 
w:  Şu  ge len  at lı  mı dır    | 
g2ag =fed2 e3d c4  | d3c cBBA ABcd e4  | \
w:  Yav rum  *  so *  run  Bağ *  dat  |  lı  *  mı *  *  *  dır    | 
=f2{g}fe d2d2 e3d c4  | 
w:  A *  man  *  so run  Bağ *  dat  | 
d3c cBBA A3d cde2  | z2cd e2e2 e2e2 a4  | \
w:  lı  *  mı *  *  *  dır   SAZ  |  Her  ge len  yâ ri  so rar    | 
g2ag =f3/2e/d2 e3d c4  | 
w:  Yav rum  *  yâr  *  bu  ka *  dar   | 
d3c cBBA ABcd e4  | =f2{g}fe d2d2 e3d c4  | \
w:  tat *  lı  *  mı *  dır    |  A *  man  *  yâr  bu  ka *  dar   | 
d3c cBBA A8  | 
w:  tat *  lı  *  mı *  dır    | 
=f2{g}fe dd3 e3d c4  | d2{e}dc cBBA ABcd e4  | \
w:  Coş *  tum  *  yi ne  dal *  ga  |  la *  nı *  yo *  rum  *  ben    | 
=f2{g}fe d2d2 e3d c4  | 
w:  Ye *  ni  *  ye ni  sev *  dâ  | 
d2{e}dc cBBA A8  | =f2{g}fe dd3 e3d c4  | \
w:  la *  nı *  yo *  rum  *  ben    |  Coş *  tum  *  yi ne  dal *  ga  | 
d2{e}dc cBBA ABcd e4  | 
w:  la *  nı *  yo *  rum  *  ben    | 
=f2{g}fe d2d2 e3d c4  | d2{e}dc cBBA A8  | \
w:  Ye *  ni  *  ye ni  sev *  dâ  |  la *  nı *  yo *  rum  *  ben    | 
=f2{g}fe d2d2 e3d c4  | 
w:  ARANAĞME  | 
d2{e}dc cBBA ABcd e4  | =f2{g}fe d2d2 e3d c4  | \
w:   |   | 
d3c cBBA A8  | 
w:   | 
=f2{g}fe d2d2 e3d c4  | d2{e}dc cBBA ABcd e4  | \
w:  ARANAĞME  |   | 
=f2{g}fe d2d2 e3d c4  | 
w:   | 
d3c cBBA A3d cde2  | z2cd e2e2 e2e2 a4  | \
w:   |  Şu  ge len  at lı  mı dır    | 
g2ag =fed2 e3d c4  | 
w:  Yav rum  *  so *  run  Bağ *  dat  | 
d3c cBBA ABcd e4  | =f2{g}fe d2d2 e3d c4  | \
w:  lı  *  mı *  *  *  dır    |  A *  man  *  so run  Bağ *  dat  | 
d3c cBBA A3d cde2  | 
w:  lı  *  mı *  *  *  dır   SAZ  | 
z2cd e2e2 e2e2 a4  | g2ag =f3/2e/d2 e3d c4  | \
w:  Her  ge len  yâ ri  so rar    |  Yav rum  *  yâr  *  bu  ka *  dar   | 
d3c cBBA ABcd e4  | 
w:  tat *  lı  *  mı *  dır    | 
=f2{g}fe d2d2 e3d c4  | d3c cBBA A8  | \
w:  A *  man  *  yâr  bu  ka *  dar   |  tat *  lı  *  mı *  dır    | 
=f2{g}fe dd3 e3d c4  | 
w:  Coş *  tum  *  yi ne  dal *  ga  | 
d2{e}dc cBBA ABcd e4  | =f2{g}fe d2d2 e3d c4  | \
w:  la *  nı *  yo *  rum  *  ben    |  Ye *  ni  *  ye ni  sev *  dâ  | 
d2{e}dc cBBA A8  | 
w:  la *  nı *  yo *  rum  *  ben    | 
=f2{g}fe dd3 e3d c4  | d2{e}dc cBBA ABcd e4  | \
w:  Coş *  tum  *  yi ne  dal *  ga  |  la *  nı *  yo *  rum  *  ben    | 
=f2{g}fe d2d2 e3d c4  | 
w:  Ye *  ni  *  ye ni  sev *  dâ  | 
d2{e}dc cBBA A8  | |


